X: 3384
M: 2/4
L: 1/16
K: A	% and D
uc2 |\
d2fd c2ec | B2Bc (BA)FG | ABAF EFAc | BABc BAFA |\
d2fd c2ec | B2Bc (BA)FG | ABAF EFAc | BABc A2 :|
|: E2 |\
agaf ecAc | BABc BAFG | ABAF EFAc | BABc A2 :|


